blockchains/ethereum/assets/0x1F54638b7737193FFd86c19Ec51907A7c41755D8/logo.svg

<svg width="250" height="250" viewBox="0 0 250 250" fill="none" xmlns="http://www.w3.org/2000/svg">
<g clip-path="url(#clip0_8_288)">
<path d="M176.575 93.25C175.7 94.125 174.525 94.625 173.3 94.625H57.175C53.075 94.625 51 89.625 53.85 86.65L72.9 66.925C73.775 66.025 74.975 65.5 76.225 65.5H192.775C196.9 65.5 198.975 70.55 196.05 73.525L176.575 93.25ZM176.575 181.4C175.7 182.25 174.525 182.75 173.3 182.75H57.175C53.075 182.75 51 177.875 53.85 174.975L72.9 155.725C73.775 154.85 74.975 154.35 76.225 154.35H192.775C196.9 154.35 198.975 159.275 196.05 162.175L176.575 181.4ZM173.3 109.925C174.525 109.925 175.7 110.4 176.575 111.275L196.05 130.525C198.975 133.4 196.9 138.35 192.775 138.35H76.225C74.975 138.35 73.775 137.85 72.9 136.975L53.85 117.725C50.975 114.825 53.05 109.95 57.175 109.95L173.3 109.925Z" fill="#00FFAD"/>
<path d="M125 0C194.025 0 250 55.975 250 125C250 194.025 194.025 250 125 250C55.975 250 0 194.025 0 125C0 55.975 55.975 0 125 0Z" fill="black"/>
<path fill-rule="evenodd" clip-rule="evenodd" d="M57.8002 113.075H173.475C174.925 113.075 176.3 113.65 177.3 114.675L195.6 133.1C198.975 136.5 196.575 142.3 191.775 142.3H76.1002C74.6502 142.3 73.2752 141.725 72.2752 140.7L53.9752 122.275C50.5752 118.875 53.0002 113.075 57.8002 113.075ZM53.9752 88.65L72.2752 70.225C73.3002 69.2 74.6752 68.625 76.1002 68.625H191.75C196.55 68.625 198.975 74.425 195.575 77.825L177.3 96.25C176.275 97.275 174.9 97.85 173.475 97.85H57.8002C53.0002 97.85 50.5752 92.05 53.9752 88.65ZM195.575 166.725L177.275 185.15C176.25 186.175 174.875 186.75 173.45 186.75H57.8002C53.0002 186.75 50.5752 180.95 53.9752 177.55L72.2752 159.125C73.3002 158.1 74.6752 157.525 76.1002 157.525H191.75C196.55 157.525 198.975 163.325 195.575 166.725Z" fill="url(#paint0_linear_8_288)"/>
</g>
<defs>
<linearGradient id="paint0_linear_8_288" x1="60.6301" y1="191.833" x2="188.92" y2="63.5424" gradientUnits="userSpaceOnUse">
<stop stop-color="#CB4EE8"/>
<stop offset="1" stop-color="#10F4B1"/>
</linearGradient>
<clipPath id="clip0_8_288">
<rect width="250" height="250" fill="white"/>
</clipPath>
</defs>
</svg>

<svg fill="none" height="250" viewBox="0 0 250 250" width="250" xmlns="http://www.w3.org/2000/svg" xmlns:xlink="http://www.w3.org/1999/xlink"><linearGradient id="a" gradientUnits="userSpaceOnUse" x1="60.6301" x2="188.92" y1="191.833" y2="63.5424"><stop offset="0" stop-color="#cb4ee8"/><stop offset="1" stop-color="#10f4b1"/></linearGradient><clipPath id="b"><path d="m0 0h250v250h-250z"/></clipPath><g clip-path="url(#b)"><path d="m176.575 93.25c-.875.875-2.05 1.375-3.275 1.375h-116.125c-4.1 0-6.175-5-3.325-7.975l19.05-19.725c.875-.9 2.075-1.425 3.325-1.425h116.55c4.125 0 6.2 5.05 3.275 8.025zm0 88.15c-.875.85-2.05 1.35-3.275 1.35h-116.125c-4.1 0-6.175-4.875-3.325-7.775l19.05-19.25c.875-.875 2.075-1.375 3.325-1.375h116.55c4.125 0 6.2 4.925 3.275 7.825zm-3.275-71.475c1.225 0 2.4.475 3.275 1.35l19.475 19.25c2.925 2.875.85 7.825-3.275 7.825h-116.55c-1.25 0-2.45-.5-3.325-1.375l-19.05-19.25c-2.875-2.9-.8-7.775 3.325-7.775z" fill="#00ffad"/><path d="m125 0c69.025 0 125 55.975 125 125s-55.975 125-125 125-125-55.975-125-125 55.975-125 125-125z" fill="#000"/><path clip-rule="evenodd" d="m57.8002 113.075h115.6748c1.45 0 2.825.575 3.825 1.6l18.3 18.425c3.375 3.4.975 9.2-3.825 9.2h-115.6748c-1.45 0-2.825-.575-3.825-1.6l-18.3-18.425c-3.4-3.4-.975-9.2 3.825-9.2zm-3.825-24.425 18.3-18.425c1.025-1.025 2.4-1.6 3.825-1.6h115.6498c4.8 0 7.225 5.8 3.825 9.2l-18.275 18.425c-1.025 1.025-2.4 1.6-3.825 1.6h-115.6748c-4.8 0-7.225-5.8-3.825-9.2zm141.5998 78.075-18.3 18.425c-1.025 1.025-2.4 1.6-3.825 1.6h-115.6498c-4.8 0-7.225-5.8-3.825-9.2l18.3-18.425c1.025-1.025 2.4-1.6 3.825-1.6h115.6498c4.8 0 7.225 5.8 3.825 9.2z" fill="url(#a)" fill-rule="evenodd"/></g></svg>
